svgs/duotone/virus.svg

<svg xmlns="http://www.w3.org/2000/svg" viewBox="0 0 576 512"><!-- Font Awesome Pro 6.0.0-alpha2 by @fontawesome - https://fontawesome.com License - https://fontawesome.com/license (Commercial License) --><defs><style>.fa-secondary{opacity:.4}</style></defs><path d="M515.555 227.555H494.008C443.326 227.555 417.943 166.278 453.781 130.44L469.027 115.194C480.139 104.083 480.139 86.083 469.027 74.973C457.916 63.862 439.916 63.862 428.805 74.973L413.561 90.217C377.723 126.055 316.445 100.674 316.445 49.991V28.444C316.445 12.723 303.723 0.001 288 0.001S259.555 12.723 259.555 28.444V49.991C259.555 100.674 198.277 126.055 162.439 90.217L147.195 74.973C136.084 63.862 118.084 63.862 106.973 74.973C95.861 86.083 95.861 104.083 106.973 115.194L122.219 130.44C158.057 166.278 132.674 227.555 81.992 227.555H60.445C44.723 227.555 32 240.278 32 256.001S44.723 284.444 60.445 284.444H81.992C132.674 284.444 158.057 345.721 122.219 381.559L106.973 396.805C95.861 407.917 95.861 425.917 106.973 437.028C112.527 442.583 119.805 445.362 127.084 445.362C134.361 445.362 141.639 442.583 147.195 437.028L162.439 421.782C198.277 385.944 259.555 411.327 259.555 462.008V483.555C259.555 499.278 272.277 512.001 288 512.001S316.445 499.278 316.445 483.555V462.008C316.445 411.327 377.723 385.944 413.561 421.782L428.805 437.028C434.361 442.583 441.639 445.362 448.916 445.362C456.195 445.362 463.473 442.583 469.027 437.028C480.139 425.917 480.139 407.917 469.027 396.805L453.781 381.559C417.943 345.721 443.326 284.444 494.008 284.444H515.555C531.277 284.444 544 271.723 544 256.001S531.277 227.555 515.555 227.555ZM256 272.001C229.49 272.001 208 250.51 208 224.001S229.49 176.001 256 176.001S304 197.491 304 224.001S282.51 272.001 256 272.001ZM336 328.001C322.746 328.001 312 317.254 312 304.001C312 290.745 322.746 280.001 336 280.001S360 290.745 360 304.001C360 317.254 349.254 328.001 336 328.001Z" class="fa-secondary"/><path d="M256 272.001C229.49 272.001 208 250.51 208 224.001S229.49 176.001 256 176.001S304 197.491 304 224.001S282.51 272.001 256 272.001Z" class="fa-primary"/></svg>

<svg xmlns="http://www.w3.org/2000/svg" viewBox="0 0 576 512"><!--! Font Awesome Pro 6.0.0-alpha3 by @fontawesome - https://fontawesome.com License - https://fontawesome.com/license (Commercial License) --><defs><style>.fa-secondary{opacity:.4}</style></defs><path class="fa-primary" d="M256 272c-26.51 0-48-21.49-48-48s21.49-48 48-48s48 21.49 48 48S282.5 272 256 272z"/><path class="fa-secondary" d="M515.6 227.6h-21.55c-50.68 0-76.06-61.28-40.23-97.12l15.25-15.25c11.11-11.11 11.11-29.11 .001-40.22c-11.11-11.11-29.11-11.11-40.22 .001l-15.24 15.24c-35.84 35.84-97.12 10.46-97.12-40.23V28.44c0-15.72-12.72-28.44-28.45-28.44S259.6 12.72 259.6 28.44v21.55c0 50.68-61.28 76.06-97.12 40.23L147.2 74.97C136.1 63.86 118.1 63.86 106.1 74.97c-11.11 11.11-11.11 29.11 .001 40.22l15.25 15.25C158.1 166.3 132.7 227.6 81.99 227.6H60.45C44.72 227.6 32 240.3 32 256s12.72 28.44 28.45 28.44h21.55c50.68 0 76.06 61.28 40.23 97.12l-15.25 15.25c-11.11 11.11-11.11 29.11-.001 40.22c5.555 5.555 12.83 8.333 20.11 8.333c7.277 0 14.55-2.779 20.11-8.334l15.24-15.25c35.84-35.84 97.12-10.46 97.12 40.23v21.55c0 15.72 12.72 28.45 28.45 28.45s28.45-12.72 28.45-28.45v-21.55c0-50.68 61.28-76.06 97.12-40.23l15.24 15.25c5.557 5.555 12.83 8.334 20.11 8.334c7.279 0 14.56-2.778 20.11-8.333c11.11-11.11 11.11-29.11-.001-40.22l-15.25-15.25c-35.84-35.84-10.46-97.12 40.23-97.12h21.55C531.3 284.4 544 271.7 544 256S531.3 227.6 515.6 227.6zM256 272c-26.51 0-48-21.49-48-48s21.49-48 48-48s48 21.49 48 48S282.5 272 256 272zM336 328c-13.25 0-24-10.75-24-24c0-13.26 10.75-23.1 24-23.1s24 10.74 24 24C360 317.3 349.3 328 336 328z"/></svg>
